X:436
T:Lost and Found
R:jig
Z:hn-jig-436
M:6/8
L:1/8
K:G
~G3 dGG | edB dBA | ~G3 dGG | edB AGE |
~G3 dGG | edB def | gfe dBA | Bee dBA :|
|: ~g3 bge | ~f3 afd | ~g3 bge | edB GBd |
~g3 bge | ~f3 aga | bag agf | efg edB :|
P:variations
|: ~G3 dGG | edB dBA | ~G3 dGG | edB AFD |
~G3 dGG | edB def | g2e dBA | B2e dBA :|
|: g2a bge | f2g afd | g2a bge | edB GBd |
g2a bge | f2g aga | bag agf | efg edB :|

